X:1
T:Title
%%score 1 { 2 | 3 }
L:1/8
Q:1/4=103
M:4/4
K:Ab
V:1 treble nm="Grand Piano, Soprano"
V:2 bass nm="Choir Pad, Jesus, Hear, Armas Maasalo"
V:3 bass 
V:1
 F4 C2 FG | AF [=EG]2 [FA]2 [FB]2- | [FB][DB][CA][B,G] [CF][C=E] [CF]2- | [CF]2 [DF]4 C2 | %4
w: By~Armas~Toivo~Valdemar~Maasalo~(1885–1960) * * *||||
 [DF][B,G][A,A][A,F] [DG]2 [CA]2 | [DB]3 [CB] [CA][B,G][CF][C=E] | [CF]4 [Ec]2 [Ec]2 | %7
w: |||
 [E_c][E=c][Ee][EA] [EB]2 [EB]2 | [Dd]2 [Fd]2 [Fc][FB][FA]F | [=EG]4 [CF]4 | %10
w: |||
 [C=E]2 [CF][CG] [CA][CF] [CG]2 | [CA]2 [B,B]2- [B,B][DB][CA][B,G] | [CF][C=E] [CF]6- | %13
w: |||
 [CF]2 z2 z4 |] %14
w: |
V:2
 F,4 C,2 F,G, | A,F, C2 C2 B,2- | B,B,F,F, A,G, A,2- | A,2 A,4 A,2 | A,E,E,F, E,2 E,2 | %5
 G,3 G, F,F,A,G, | A,4 A,2[K:treble] C2 | ECA,A,[K:bass] A,2 G,2 | F,2 B,2 A,B,[K:treble]CC | %9
 C4 A,4 | G,2[K:bass] F,=E, F,F, E,2 | F,2 F,2- F,F,F,F, | A,G, A,6- | A,2 z2 z4 |] %14
V:3
 z8 | z2 C,2 F,2 D,2- | D,B,,C,D, C,C, F,,2- | F,,2 D,4 A,,2 | D,D,C,D, B,,2 A,,2 | %5
 E,3 =E, z D,C,C, | F,,4 A,,2 A,2 | G,A,C,C, E,2 E,2 | B,,2 D,2 F,D,C,A,, | C,4 F,4 | %10
 C,2 A,,G,, F,,A,, C,2 | z2 D,2- D,B,,C,D, | C,C, F,,6- | F,,2 z2 z4 |] %14

